X: 87
T: Reel de Montr\'eal
C: R-41
C: French Canadian
M: C|
Z: Transcribed to abc by Mary Lou Knack
R: reel
K: G
d2| "G"g2fe dcBA| GBDG B2AG| "D7"FADF AcBA| "G"GBDG B2Bd|
    "G"g2fe dcBA| GBDG B2AG| "D7"FGAB cdef| "G"g2g2 g2 :| \K: D\
|: \
z2 |\
"D"A2FA d2Ad| f2df a2ab| "A7"a2g2 e2g2| "D"b2a2 f2d2|
"D"A2FA d2Ad| f2df a2ab| "A7"a2g2 e2c2| "D  (D7)"d4-d2 :|
%%text 8/25/99
% ---------- page 45 ----------
